svgs/auth.svg

<svg width="192" height="192" viewBox="0 0 192 192" fill="none" xmlns="http://www.w3.org/2000/svg">
<path d="M115.575 69V117.565C115.575 120.364 117.012 122.869 119.045 123.486C121.59 124.257 126.132 124.514 129 121.662M107 82.738H123.15" stroke="black" stroke-width="12" stroke-linecap="round" stroke-linejoin="round"/>
<path d="M144 62V97.464M144 97.464V124M144 97.464C146.6 79.2774 170 78.368 170 97.464V124" stroke="black" stroke-width="12" stroke-linecap="round" stroke-linejoin="round"/>
<path d="M22.8324 88.7114C34.8189 79.5447 48.8032 85.0447 48.8032 96.0447V103.836M48.8032 103.836V111.628M48.8032 103.836H31.4893C18.8369 103.836 18.8369 124.461 31.4893 124.461C39.4803 124.461 46.8054 115.295 48.8032 111.628M48.8032 124.461V111.628" stroke="black" stroke-width="12" stroke-linecap="round" stroke-linejoin="round"/>
<path d="M93 124.5V89V112C93 118.904 87.4036 124.5 80.5 124.5C73.5964 124.5 68 118.904 68 112V89" stroke="black" stroke-width="12" stroke-linecap="round" stroke-linejoin="round"/>
</svg>

<svg width="192" height="192" viewBox="0 0 192 192" fill="none" xmlns="http://www.w3.org/2000/svg"><path d="M115.575 69v48.565c0 2.799 1.437 5.304 3.47 5.921 2.545.771 7.087 1.028 9.955-1.824m-22-38.924h16.15M144 62v35.464m0 0V124m0-26.536c2.6-18.187 26-19.096 26 0V124M22.832 88.711c11.987-9.166 25.971-3.666 25.971 7.334v7.791m0 0v7.792m0-7.792H31.49c-12.652 0-12.652 20.625 0 20.625 7.991 0 15.316-9.166 17.314-12.833m0 12.833v-12.833M93 124.5V89v23c0 6.904-5.596 12.5-12.5 12.5S68 118.904 68 112V89" stroke="#000" stroke-width="12" stroke-linecap="round" stroke-linejoin="round"/></svg>
